images_sukapura_svg/cmd/lc_datasort.svg

<svg viewBox="0 0 24 24" xmlns="http://www.w3.org/2000/svg" xmlns:xlink="http://www.w3.org/1999/xlink"><linearGradient id="a" gradientTransform="translate(-25 9)" gradientUnits="userSpaceOnUse" x1="14" x2="13.79661" y1="22" y2="2.135593"><stop offset="0" stop-color="#0040dd"/><stop offset="1" stop-color="#0a84ff"/></linearGradient><linearGradient id="b" gradientUnits="userSpaceOnUse" x1="17.5" x2="17.5" xlink:href="#a" y1="19.5" y2="4.5"/><linearGradient id="c" gradientUnits="userSpaceOnUse" x1="7" x2="7.5" xlink:href="#a" y1="20" y2="4"/><path d="m6 20v-11h-2.496094a.49150121.49150121 0 0 1 -.347656-.839844l3.996094-4a.49150121.49150121 0 0 1 .695312 0l3.996094 4a.49150121.49150121 0 0 1 -.347656.839844h-2.496094v11z" fill="url(#c)"/><path d="m16 4v11h-2.496094a.49150121.49150121 0 0 0 -.347656.839844l3.996094 4a.49150121.49150121 0 0 0 .695312 0l3.996094-4a.49150121.49150121 0 0 0 -.347656-.839844h-2.496094v-11z" fill="url(#b)"/></svg>

<?xml version="1.0" encoding="UTF-8" standalone="no"?>
<svg
   xmlns:dc="http://purl.org/dc/elements/1.1/"
   xmlns:cc="http://creativecommons.org/ns#"
   xmlns:rdf="http://www.w3.org/1999/02/22-rdf-syntax-ns#"
   xmlns:svg="http://www.w3.org/2000/svg"
   xmlns="http://www.w3.org/2000/svg"
   xmlns:xlink="http://www.w3.org/1999/xlink"
   xmlns:sodipodi="http://sodipodi.sourceforge.net/DTD/sodipodi-0.dtd"
   xmlns:inkscape="http://www.inkscape.org/namespaces/inkscape"
   viewBox="0 0 24 24"
   version="1.1"
   id="svg10"
   sodipodi:docname="lc_datasort.svg"
   inkscape:export-filename="/home/rizmut/Documents/Rizmut/Github/libreoffice-style-sukapura/images_sukapura/cmd/lc_sortdescending.png"
   inkscape:export-xdpi="96"
   inkscape:export-ydpi="96"
   inkscape:version="0.92.3 (2405546, 2018-03-11)">
  <metadata
     id="metadata16">
    <rdf:RDF>
      <cc:Work
         rdf:about="">
        <dc:format>image/svg+xml</dc:format>
        <dc:type
           rdf:resource="http://purl.org/dc/dcmitype/StillImage" />
        <dc:title></dc:title>
      </cc:Work>
    </rdf:RDF>
  </metadata>
  <defs
     id="defs14">
    <linearGradient
       gradientTransform="translate(-25,9)"
       id="a"
       gradientUnits="userSpaceOnUse"
       x1="14"
       x2="13.79661"
       y1="22"
       y2="2.1355929">
      <stop
         offset="0"
         stop-color="#0040dd"
         id="stop2799" />
      <stop
         offset="1"
         stop-color="#0a84ff"
         id="stop2801" />
    </linearGradient>
    <linearGradient
       inkscape:collect="always"
       xlink:href="#a"
       id="linearGradient950"
       x1="17.5"
       y1="19.5"
       x2="17.5"
       y2="4.5"
       gradientUnits="userSpaceOnUse" />
    <linearGradient
       inkscape:collect="always"
       xlink:href="#a"
       id="linearGradient952"
       x1="7"
       y1="20"
       x2="7.5"
       y2="4"
       gradientUnits="userSpaceOnUse" />
  </defs>
  <sodipodi:namedview
     pagecolor="#ffffff"
     bordercolor="#666666"
     borderopacity="1"
     objecttolerance="10"
     gridtolerance="10"
     guidetolerance="10"
     inkscape:pageopacity="0"
     inkscape:pageshadow="2"
     inkscape:window-width="1366"
     inkscape:window-height="685"
     id="namedview12"
     showgrid="true"
     inkscape:zoom="16"
     inkscape:cx="7.4984245"
     inkscape:cy="9.6895493"
     inkscape:window-x="0"
     inkscape:window-y="0"
     inkscape:window-maximized="1"
     inkscape:current-layer="svg10">
    <inkscape:grid
       type="xygrid"
       id="grid823"
       spacingx="0.5"
       spacingy="0.5"
       empspacing="2" />
  </sodipodi:namedview>
  <path
     inkscape:connector-curvature="0"
     id="path942"
     d="M 6,20 V 9 H 3.503906 A 0.49150121,0.49150121 0 0 1 3.15625,8.160156 l 3.996094,-4 a 0.49150121,0.49150121 0 0 1 0.695312,0 l 3.996094,4 A 0.49150121,0.49150121 0 0 1 11.496094,9 H 9 v 11 z"
     style="fill:url(#linearGradient952);fill-opacity:1;stroke:none;stroke-width:0.999439;stroke-linecap:round;stroke-linejoin:round" />
  <path
     style="fill:url(#linearGradient950);fill-opacity:1;stroke:none;stroke-width:0.999439;stroke-linecap:round;stroke-linejoin:round"
     d="m 16,4 v 11 h -2.496094 a 0.49150121,0.49150121 0 0 0 -0.347656,0.839844 l 3.996094,4 a 0.49150121,0.49150121 0 0 0 0.695312,0 l 3.996094,-4 A 0.49150121,0.49150121 0 0 0 21.496094,15 H 19 V 4 Z"
     id="path2"
     inkscape:connector-curvature="0" />
</svg>
